assets/1. P-Z/Tropical fish/Color/Tropical.Fish-color.svg

<svg width="100%" height="100%" viewBox="0 0 32 32" fill="none" xmlns="http://www.w3.org/2000/svg">
<circle cx="3.05469" cy="19.9453" r="1.05469" fill="url(#paint0_radial_28327_5989)"/>
<circle cx="3.05469" cy="19.9453" r="1.05469" fill="url(#paint1_radial_28327_5989)"/>
<circle cx="3.05469" cy="17.9453" r="1.05469" fill="url(#paint2_radial_28327_5989)"/>
<path d="M14.375 7H23C24.6569 7 26 8.34315 26 10V27C26 28.6569 24.6569 30 23 30H14.375V7Z" fill="url(#paint3_linear_28327_5989)"/>
<path d="M14.375 7H23C24.6569 7 26 8.34315 26 10V27C26 28.6569 24.6569 30 23 30H14.375V7Z" fill="url(#paint4_radial_28327_5989)"/>
<path d="M14.375 7H23C24.6569 7 26 8.34315 26 10V27C26 28.6569 24.6569 30 23 30H14.375V7Z" fill="url(#paint5_radial_28327_5989)"/>
<path d="M14.375 7H23C24.6569 7 26 8.34315 26 10V27C26 28.6569 24.6569 30 23 30H14.375V7Z" fill="url(#paint6_linear_28327_5989)"/>
<path d="M14.375 7H23C24.6569 7 26 8.34315 26 10V27C26 28.6569 24.6569 30 23 30H14.375V7Z" fill="url(#paint7_radial_28327_5989)"/>
<path d="M14.375 7H23C24.6569 7 26 8.34315 26 10V27C26 28.6569 24.6569 30 23 30H14.375V7Z" fill="url(#paint8_radial_28327_5989)"/>
<path d="M14.375 7H23C24.6569 7 26 8.34315 26 10V27C26 28.6569 24.6569 30 23 30H14.375V7Z" fill="url(#paint9_radial_28327_5989)"/>
<path d="M14.375 7H23C24.6569 7 26 8.34315 26 10V27C26 28.6569 24.6569 30 23 30H14.375V7Z" fill="url(#paint10_linear_28327_5989)"/>
<circle cx="14.5" cy="18.5" r="11.5" fill="url(#paint11_radial_28327_5989)"/>
<circle cx="14.5" cy="18.5" r="11.5" fill="url(#paint12_radial_28327_5989)"/>
<circle cx="14.5" cy="18.5" r="11.5" fill="url(#paint13_radial_28327_5989)"/>
<circle cx="14.5" cy="18.5" r="11.5" fill="url(#paint14_radial_28327_5989)"/>
<path d="M6.69925 10.0503C9.13304 12.0329 10.6875 15.0537 10.6875 18.4376C10.6875 21.8547 9.10239 24.9015 6.62737 26.883C4.39454 24.7852 3 21.8055 3 18.5001C3 15.1594 4.42451 12.1513 6.69925 10.0503Z" fill="url(#paint15_radial_28327_5989)"/>
<g filter="url(#filter0_f_28327_5989)">
<path d="M17.6094 21.7172V15.8435C17.6094 15.2341 16.8847 14.9157 16.4358 15.3279L13.438 18.0814C13.0026 18.4814 13.0073 19.1698 13.4482 19.5637L16.443 22.2393C16.894 22.6422 17.6094 22.3221 17.6094 21.7172Z" fill="#4D82FD"/>
</g>
<path d="M18 21.4516V15.5778C18 14.9684 17.2753 14.6501 16.8265 15.0623L13.8286 17.8158C13.3932 18.2158 13.3979 18.9041 13.8388 19.298L16.8336 21.9736C17.2846 22.3766 18 22.0564 18 21.4516Z" fill="url(#paint16_linear_28327_5989)"/>
<path d="M18 21.4516V15.5778C18 14.9684 17.2753 14.6501 16.8265 15.0623L13.8286 17.8158C13.3932 18.2158 13.3979 18.9041 13.8388 19.298L16.8336 21.9736C17.2846 22.3766 18 22.0564 18 21.4516Z" fill="url(#paint17_linear_28327_5989)"/>
<path d="M18 21.4516V15.5778C18 14.9684 17.2753 14.6501 16.8265 15.0623L13.8286 17.8158C13.3932 18.2158 13.3979 18.9041 13.8388 19.298L16.8336 21.9736C17.2846 22.3766 18 22.0564 18 21.4516Z" fill="url(#paint18_radial_28327_5989)"/>
<circle cx="7.42188" cy="16.3906" r="0.5" fill="url(#paint19_radial_28327_5989)"/>
<circle cx="7.42188" cy="16.3906" r="0.5" fill="url(#paint20_radial_28327_5989)"/>
<circle cx="7.42188" cy="16.3906" r="0.5" fill="url(#paint21_linear_28327_5989)"/>
<path d="M30.0625 15.9552C30.0625 15.2833 29.2969 14.4786 28.2421 14.9993C26.9014 15.7785 26 17.2303 26 18.8927C26 20.555 26.9014 22.0069 28.2421 22.7861C29.0009 23.2271 30.0625 22.713 30.0625 21.9552V15.9552Z" fill="url(#paint22_radial_28327_5989)"/>
<path d="M30.0625 15.9552C30.0625 15.2833 29.2969 14.4786 28.2421 14.9993C26.9014 15.7785 26 17.2303 26 18.8927C26 20.555 26.9014 22.0069 28.2421 22.7861C29.0009 23.2271 30.0625 22.713 30.0625 21.9552V15.9552Z" fill="url(#paint23_radial_28327_5989)"/>
<path d="M30.0625 15.9552C30.0625 15.2833 29.2969 14.4786 28.2421 14.9993C26.9014 15.7785 26 17.2303 26 18.8927C26 20.555 26.9014 22.0069 28.2421 22.7861C29.0009 23.2271 30.0625 22.713 30.0625 21.9552V15.9552Z" fill="url(#paint24_radial_28327_5989)"/>
<defs>
<filter id="filter0_f_28327_5989" x="12.3644" y="14.3921" width="5.99491" height="8.77661" filterUnits="userSpaceOnUse" color-interpolation-filters="sRGB">
<feFlood flood-opacity="0" result="BackgroundImageFix"/>
<feBlend mode="normal" in="SourceGraphic" in2="BackgroundImageFix" result="shape"/>
<feGaussianBlur stdDeviation="0.375" result="effect1_foregroundBlur_28327_5989"/>
</filter>
<radialGradient id="paint0_radial_28327_5989" cx="0" cy="0" r="1" gradientUnits="userSpaceOnUse" gradientTransform="translate(2 20.4844) rotate(-22.3287) scale(1.41889 2.18664)">
<stop stop-color="#6D5A93"/>
<stop offset="1" stop-color="#5F498C"/>
</radialGradient>
<radialGradient id="paint1_radial_28327_5989" cx="0" cy="0" r="1" gradientUnits="userSpaceOnUse" gradientTransform="translate(3.05469 18.75) rotate(98.2192) scale(0.710422 0.794001)">
<stop stop-color="#442E79"/>
<stop offset="1" stop-color="#442E79" stop-opacity="0"/>
</radialGradient>
<radialGradient id="paint2_radial_28327_5989" cx="0" cy="0" r="1" gradientUnits="userSpaceOnUse" gradientTransform="translate(1.875 17.9453) scale(1.625 2.50428)">
<stop stop-color="#6D5A93"/>
<stop offset="1" stop-color="#5F498C"/>
</radialGradient>
<linearGradient id="paint3_linear_28327_5989" x1="30.8125" y1="17.375" x2="20.5" y2="17.375" gradientUnits="userSpaceOnUse">
<stop stop-color="#FFE359"/>
<stop offset="1" stop-color="#FFBE3E"/>
</linearGradient>
<radialGradient id="paint4_radial_28327_5989" cx="0" cy="0" r="1" gradientUnits="userSpaceOnUse" gradientTransform="translate(17.1875 31.625) rotate(-24.2093) scale(8.83994 12.5304)">
<stop stop-color="#FF835D"/>
<stop offset="1" stop-color="#FF835D" stop-opacity="0"/>
</radialGradient>
<radialGradient id="paint5_radial_28327_5989" cx="0" cy="0" r="1" gradientUnits="userSpaceOnUse" gradientTransform="translate(22.3125 20.7812) rotate(46.65) scale(5.37182 7.61442)">
<stop stop-color="#FF835D"/>
<stop offset="1" stop-color="#FF835D" stop-opacity="0"/>
</radialGradient>
<linearGradient id="paint6_linear_28327_5989" x1="26" y1="30.6563" x2="26" y2="29.4375" gradientUnits="userSpaceOnUse">
<stop offset="0.117647" stop-color="#FF835D"/>
<stop offset="1" stop-color="#FF835D" stop-opacity="0"/>
</linearGradient>
<radialGradient id="paint7_radial_28327_5989" cx="0" cy="0" r="1" gradientUnits="userSpaceOnUse" gradientTransform="translate(9.25 10.625) rotate(48.1295) scale(25.0955 16.4974)">
<stop offset="0.943448" stop-color="#FF835D" stop-opacity="0"/>
<stop offset="1" stop-color="#FF835D"/>
</radialGradient>
<radialGradient id="paint8_radial_28327_5989" cx="0" cy="0" r="1" gradientUnits="userSpaceOnUse" gradientTransform="translate(25.0625 8.5625) rotate(143.673) scale(3.95643 5.87059)">
<stop stop-color="#FFE65E"/>
<stop offset="0.654314" stop-color="#FFE65E" stop-opacity="0"/>
</radialGradient>
<radialGradient id="paint9_radial_28327_5989" cx="0" cy="0" r="1" gradientUnits="userSpaceOnUse" gradientTransform="translate(27.125 14.9375) rotate(-90) scale(6.0625 11.8125)">
<stop stop-color="#FFE65E"/>
<stop offset="1" stop-color="#FFE65E" stop-opacity="0"/>
</radialGradient>
<linearGradient id="paint10_linear_28327_5989" x1="19.0938" y1="6.3125" x2="19.2188" y2="7.625" gradientUnits="userSpaceOnUse">
<stop stop-color="#FFB941"/>
<stop offset="1" stop-color="#FFB941" stop-opacity="0"/>
</linearGradient>
<radialGradient id="paint11_radial_28327_5989" cx="0" cy="0" r="1" gradientUnits="userSpaceOnUse" gradientTransform="translate(22.8125 9.75) rotate(120.084) scale(20.9467 22.4328)">
<stop stop-color="#76CDFF"/>
<stop offset="1" stop-color="#5181FF"/>
</radialGradient>
<radialGradient id="paint12_radial_28327_5989" cx="0" cy="0" r="1" gradientUnits="userSpaceOnUse" gradientTransform="translate(14.5 9.0625) rotate(90) scale(23.0625 17.9752)">
<stop offset="0.78628" stop-color="#5A67FF" stop-opacity="0"/>
<stop offset="0.92876" stop-color="#5A67FF"/>
</radialGradient>
<radialGradient id="paint13_radial_28327_5989" cx="0" cy="0" r="1" gradientUnits="userSpaceOnUse" gradientTransform="translate(28.5 18.8125) rotate(180) scale(3.6875 6.17092)">
<stop offset="0.0169493" stop-color="#5A67FF"/>
<stop offset="1" stop-color="#5A67FF" stop-opacity="0"/>
</radialGradient>
<radialGradient id="paint14_radial_28327_5989" cx="0" cy="0" r="1" gradientUnits="userSpaceOnUse" gradientTransform="translate(7.875 8.125) rotate(49.8208) scale(3.68114 9.84431)">
<stop stop-color="#65AFE3"/>
<stop offset="1" stop-color="#65AFE3" stop-opacity="0"/>
</radialGradient>
<radialGradient id="paint15_radial_28327_5989" cx="0" cy="0" r="1" gradientUnits="userSpaceOnUse" gradientTransform="translate(0.625 18.4667) scale(23.875 34.7797)">
<stop offset="0.065445" stop-color="#80739F"/>
<stop offset="0.26178" stop-color="#6F53A3"/>
</radialGradient>
<linearGradient id="paint16_linear_28327_5989" x1="18" y1="17.8751" x2="13.8125" y2="17.8751" gradientUnits="userSpaceOnUse">
<stop stop-color="#FFD65C"/>
<stop offset="1" stop-color="#FF8C42"/>
</linearGradient>
<linearGradient id="paint17_linear_28327_5989" x1="15.7525" y1="19.5938" x2="14.2812" y2="20.6251" gradientUnits="userSpaceOnUse">
<stop stop-color="#FF8C42" stop-opacity="0"/>
<stop offset="1" stop-color="#FF8C42"/>
</linearGradient>
<radialGradient id="paint18_radial_28327_5989" cx="0" cy="0" r="1" gradientUnits="userSpaceOnUse" gradientTransform="translate(18 15.8438) rotate(90) scale(4.5 0.71873)">
<stop stop-color="#FFD65C"/>
<stop offset="1" stop-color="#FFD65C" stop-opacity="0"/>
</radialGradient>
<radialGradient id="paint19_radial_28327_5989" cx="0" cy="0" r="1" gradientUnits="userSpaceOnUse" gradientTransform="translate(7.57031 16.2297) rotate(125.838) scale(0.693863 0.618606)">
<stop offset="0.00558659" stop-color="#433437"/>
<stop offset="1" stop-color="#3B2838"/>
</radialGradient>
<radialGradient id="paint20_radial_28327_5989" cx="0" cy="0" r="1" gradientUnits="userSpaceOnUse" gradientTransform="translate(7.60873 16.2656) rotate(137.643) scale(0.35946 0.316238)">
<stop stop-color="#5C5051"/>
<stop offset="1" stop-color="#5C5051" stop-opacity="0"/>
</radialGradient>
<linearGradient id="paint21_linear_28327_5989" x1="7.32358" y1="15.9979" x2="6.97983" y2="15.7792" gradientUnits="userSpaceOnUse">
<stop stop-color="#5C5051" stop-opacity="0"/>
<stop offset="1" stop-color="#5C5051"/>
</linearGradient>
<radialGradient id="paint22_radial_28327_5989" cx="0" cy="0" r="1" gradientUnits="userSpaceOnUse" gradientTransform="translate(30.375 18.8907) rotate(180) scale(4.375 8.85937)">
<stop offset="0.328571" stop-color="#FFC256"/>
<stop offset="1" stop-color="#FF8646"/>
</radialGradient>
<radialGradient id="paint23_radial_28327_5989" cx="0" cy="0" r="1" gradientUnits="userSpaceOnUse" gradientTransform="translate(30.0625 17.0938) rotate(90) scale(4.59375 1.28023)">
<stop stop-color="#FFD661"/>
<stop offset="1" stop-color="#FFD661" stop-opacity="0"/>
</radialGradient>
<radialGradient id="paint24_radial_28327_5989" cx="0" cy="0" r="1" gradientUnits="userSpaceOnUse" gradientTransform="translate(31.1875 18.8907) rotate(180) scale(5.375 5.125)">
<stop offset="0.892442" stop-color="#F37539" stop-opacity="0"/>
<stop offset="1" stop-color="#F37539"/>
</radialGradient>
</defs>
</svg>

<svg width="100%" height="100%" viewBox="0 0 32 32" xmlns="http://www.w3.org/2000/svg"><circle cx="3.055" cy="19.945" r="1.055" fill="url(#a)"/><circle cx="3.055" cy="19.945" r="1.055" fill="url(#b)"/><circle cx="3.055" cy="17.945" r="1.055" fill="url(#c)"/><path fill="url(#d)" d="M14.375 7H23a3 3 0 0 1 3 3v17a3 3 0 0 1-3 3h-8.625z"/><path fill="url(#e)" d="M14.375 7H23a3 3 0 0 1 3 3v17a3 3 0 0 1-3 3h-8.625z"/><path fill="url(#f)" d="M14.375 7H23a3 3 0 0 1 3 3v17a3 3 0 0 1-3 3h-8.625z"/><path fill="url(#g)" d="M14.375 7H23a3 3 0 0 1 3 3v17a3 3 0 0 1-3 3h-8.625z"/><path fill="url(#h)" d="M14.375 7H23a3 3 0 0 1 3 3v17a3 3 0 0 1-3 3h-8.625z"/><path fill="url(#i)" d="M14.375 7H23a3 3 0 0 1 3 3v17a3 3 0 0 1-3 3h-8.625z"/><path fill="url(#j)" d="M14.375 7H23a3 3 0 0 1 3 3v17a3 3 0 0 1-3 3h-8.625z"/><path fill="url(#k)" d="M14.375 7H23a3 3 0 0 1 3 3v17a3 3 0 0 1-3 3h-8.625z"/><circle cx="14.5" cy="18.5" r="11.5" fill="url(#l)"/><circle cx="14.5" cy="18.5" r="11.5" fill="url(#m)"/><circle cx="14.5" cy="18.5" r="11.5" fill="url(#n)"/><circle cx="14.5" cy="18.5" r="11.5" fill="url(#o)"/><path fill="url(#p)" d="M6.7 10.05a10.8 10.8 0 0 1 3.988 8.388c0 3.417-1.586 6.464-4.06 8.445A11.47 11.47 0 0 1 3 18.5a11.47 11.47 0 0 1 3.7-8.45"/><g filter="url(#q)"><path fill="#4D82FD" d="M17.61 21.717v-5.873a.7.7 0 0 0-1.174-.516l-2.998 2.753a1 1 0 0 0 .01 1.483l2.995 2.675a.7.7 0 0 0 1.166-.522"/></g><path fill="url(#r)" d="M18 21.452v-5.874a.7.7 0 0 0-1.174-.516l-2.997 2.754a1 1 0 0 0 .01 1.482l2.995 2.676A.7.7 0 0 0 18 21.452"/><path fill="url(#s)" d="M18 21.452v-5.874a.7.7 0 0 0-1.174-.516l-2.997 2.754a1 1 0 0 0 .01 1.482l2.995 2.676A.7.7 0 0 0 18 21.452"/><path fill="url(#t)" d="M18 21.452v-5.874a.7.7 0 0 0-1.174-.516l-2.997 2.754a1 1 0 0 0 .01 1.482l2.995 2.676A.7.7 0 0 0 18 21.452"/><circle cx="7.422" cy="16.391" r=".5" fill="url(#u)"/><circle cx="7.422" cy="16.391" r=".5" fill="url(#v)"/><circle cx="7.422" cy="16.391" r=".5" fill="url(#w)"/><path fill="url(#x)" d="M30.063 15.955c0-.672-.766-1.476-1.82-.956A4.5 4.5 0 0 0 26 18.893c0 1.662.901 3.114 2.242 3.893.759.441 1.82-.073 1.82-.83z"/><path fill="url(#y)" d="M30.063 15.955c0-.672-.766-1.476-1.82-.956A4.5 4.5 0 0 0 26 18.893c0 1.662.901 3.114 2.242 3.893.759.441 1.82-.073 1.82-.83z"/><path fill="url(#z)" d="M30.063 15.955c0-.672-.766-1.476-1.82-.956A4.5 4.5 0 0 0 26 18.893c0 1.662.901 3.114 2.242 3.893.759.441 1.82-.073 1.82-.83z"/><defs><radialGradient id="a" cx="0" cy="0" r="1" gradientTransform="matrix(1.3125 -.53906 .83075 2.02268 2 20.484)" gradientUnits="userSpaceOnUse"><stop stop-color="#6D5A93"/><stop offset="1" stop-color="#5F498C"/></radialGradient><radialGradient id="b" cx="0" cy="0" r="1" gradientTransform="rotate(98.219 -6.59 10.698)scale(.71042 .794)" gradientUnits="userSpaceOnUse"><stop stop-color="#442E79"/><stop offset="1" stop-color="#442E79" stop-opacity="0"/></radialGradient><radialGradient id="c" cx="0" cy="0" r="1" gradientTransform="matrix(1.625 0 0 2.50428 1.875 17.945)" gradientUnits="userSpaceOnUse"><stop stop-color="#6D5A93"/><stop offset="1" stop-color="#5F498C"/></radialGradient><radialGradient id="e" cx="0" cy="0" r="1" gradientTransform="matrix(8.0625 -3.625 5.13835 11.4284 17.188 31.625)" gradientUnits="userSpaceOnUse"><stop stop-color="#FF835D"/><stop offset="1" stop-color="#FF835D" stop-opacity="0"/></radialGradient><radialGradient id="f" cx="0" cy="0" r="1" gradientTransform="rotate(46.65 -12.942 36.264)scale(5.37182 7.61442)" gradientUnits="userSpaceOnUse"><stop stop-color="#FF835D"/><stop offset="1" stop-color="#FF835D" stop-opacity="0"/></radialGradient><radialGradient id="h" cx="0" cy="0" r="1" gradientTransform="rotate(48.13 -7.27 15.669)scale(25.0955 16.4974)" gradientUnits="userSpaceOnUse"><stop offset=".943" stop-color="#FF835D" stop-opacity="0"/><stop offset="1" stop-color="#FF835D"/></radialGradient><radialGradient id="i" cx="0" cy="0" r="1" gradientTransform="rotate(143.673 11.127 8.392)scale(3.95643 5.87059)" gradientUnits="userSpaceOnUse"><stop stop-color="#FFE65E"/><stop offset=".654" stop-color="#FFE65E" stop-opacity="0"/></radialGradient><radialGradient id="j" cx="0" cy="0" r="1" gradientTransform="matrix(0 -6.0625 11.8125 0 27.125 14.938)" gradientUnits="userSpaceOnUse"><stop stop-color="#FFE65E"/><stop offset="1" stop-color="#FFE65E" stop-opacity="0"/></radialGradient><radialGradient id="l" cx="0" cy="0" r="1" gradientTransform="matrix(-10.49993 18.125 -19.41091 -11.24487 22.813 9.75)" gradientUnits="userSpaceOnUse"><stop stop-color="#76CDFF"/><stop offset="1" stop-color="#5181FF"/></radialGradient><radialGradient id="m" cx="0" cy="0" r="1" gradientTransform="matrix(0 23.0625 -17.9752 0 14.5 9.063)" gradientUnits="userSpaceOnUse"><stop offset=".786" stop-color="#5A67FF" stop-opacity="0"/><stop offset=".929" stop-color="#5A67FF"/></radialGradient><radialGradient id="n" cx="0" cy="0" r="1" gradientTransform="matrix(-3.6875 0 0 -6.17092 28.5 18.813)" gradientUnits="userSpaceOnUse"><stop offset=".017" stop-color="#5A67FF"/><stop offset="1" stop-color="#5A67FF" stop-opacity="0"/></radialGradient><radialGradient id="o" cx="0" cy="0" r="1" gradientTransform="rotate(49.821 -4.81 12.541)scale(3.68114 9.84431)" gradientUnits="userSpaceOnUse"><stop stop-color="#65AFE3"/><stop offset="1" stop-color="#65AFE3" stop-opacity="0"/></radialGradient><radialGradient id="p" cx="0" cy="0" r="1" gradientTransform="matrix(23.875 0 0 34.7797 .625 18.467)" gradientUnits="userSpaceOnUse"><stop offset=".065" stop-color="#80739F"/><stop offset=".262" stop-color="#6F53A3"/></radialGradient><radialGradient id="t" cx="0" cy="0" r="1" gradientTransform="matrix(0 4.5 -.71873 0 18 15.844)" gradientUnits="userSpaceOnUse"><stop stop-color="#FFD65C"/><stop offset="1" stop-color="#FFD65C" stop-opacity="0"/></radialGradient><radialGradient id="u" cx="0" cy="0" r="1" gradientTransform="rotate(125.838 -.364 10.05)scale(.69386 .61861)" gradientUnits="userSpaceOnUse"><stop offset=".006" stop-color="#433437"/><stop offset="1" stop-color="#3B2838"/></radialGradient><radialGradient id="v" cx="0" cy="0" r="1" gradientTransform="rotate(137.643 .653 9.607)scale(.35946 .31624)" gradientUnits="userSpaceOnUse"><stop stop-color="#5C5051"/><stop offset="1" stop-color="#5C5051" stop-opacity="0"/></radialGradient><radialGradient id="x" cx="0" cy="0" r="1" gradientTransform="matrix(-4.375 0 0 -8.85937 30.375 18.89)" gradientUnits="userSpaceOnUse"><stop offset=".329" stop-color="#FFC256"/><stop offset="1" stop-color="#FF8646"/></radialGradient><radialGradient id="y" cx="0" cy="0" r="1" gradientTransform="matrix(0 4.59375 -1.28023 0 30.063 17.094)" gradientUnits="userSpaceOnUse"><stop stop-color="#FFD661"/><stop offset="1" stop-color="#FFD661" stop-opacity="0"/></radialGradient><radialGradient id="z" cx="0" cy="0" r="1" gradientTransform="matrix(-5.375 0 0 -5.125 31.188 18.89)" gradientUnits="userSpaceOnUse"><stop offset=".892" stop-color="#F37539" stop-opacity="0"/><stop offset="1" stop-color="#F37539"/></radialGradient><linearGradient id="d" x1="30.813" x2="20.5" y1="17.375" y2="17.375" gradientUnits="userSpaceOnUse"><stop stop-color="#FFE359"/><stop offset="1" stop-color="#FFBE3E"/></linearGradient><linearGradient id="g" x1="26" x2="26" y1="30.656" y2="29.438" gradientUnits="userSpaceOnUse"><stop offset=".118" stop-color="#FF835D"/><stop offset="1" stop-color="#FF835D" stop-opacity="0"/></linearGradient><linearGradient id="k" x1="19.094" x2="19.219" y1="6.313" y2="7.625" gradientUnits="userSpaceOnUse"><stop stop-color="#FFB941"/><stop offset="1" stop-color="#FFB941" stop-opacity="0"/></linearGradient><linearGradient id="r" x1="18" x2="13.813" y1="17.875" y2="17.875" gradientUnits="userSpaceOnUse"><stop stop-color="#FFD65C"/><stop offset="1" stop-color="#FF8C42"/></linearGradient><linearGradient id="s" x1="15.752" x2="14.281" y1="19.594" y2="20.625" gradientUnits="userSpaceOnUse"><stop stop-color="#FF8C42" stop-opacity="0"/><stop offset="1" stop-color="#FF8C42"/></linearGradient><linearGradient id="w" x1="7.324" x2="6.98" y1="15.998" y2="15.779" gradientUnits="userSpaceOnUse"><stop stop-color="#5C5051" stop-opacity="0"/><stop offset="1" stop-color="#5C5051"/></linearGradient><filter id="q" width="5.995" height="8.777" x="12.364" y="14.392" color-interpolation-filters="sRGB" filterUnits="userSpaceOnUse"><feFlood flood-opacity="0" result="BackgroundImageFix"/><feBlend in="SourceGraphic" in2="BackgroundImageFix" result="shape"/><feGaussianBlur result="effect1_foregroundBlur_28327_5989" stdDeviation=".375"/></filter></defs></svg>
